public/logos/mqtt.svg

<svg height="128" viewBox="0 0 512 512" xmlns="http://www.w3.org/2000/svg"><path d="m.3000209 290.6701965v195.7532043c0 14.0420533 11.3673966 25.5765992 25.5766366 25.5765992h199.9323425c-1.6716709-122.3666382-102.139368-221.3298035-225.5089791-221.3298035zm0-161.4838104v83.2494202c165.4958496 1.5045013 299.8985291 134.9041901 301.5701904 299.3970947h86.4256592c-1.6716945-211.1326141-175.0244319-382.4793243-387.9958496-382.6464844zm511.1982701 357.0698395v-174.0213928c-58.1742859-144.4327546-176.5289306-258.4409943-324.1378174-311.7674358h-161.4838428c-14.0420609 0-25.5766354 11.3673906-25.5766354 25.5766296v25.0751286c255.0976868 1.504509 462.3854065 207.287735 464.0570984 460.7137451h21.731781c14.0420532 0 25.4094849-11.3673706 25.4094849-25.5766296zm-67.3684997-414.241127c24.2392883 24.0721207 47.8099365 52.9921112 67.535675 79.9060593v-125.8771306c0-14.0420752-11.3673706-25.5766296-25.5765991-25.5766296h-129.2204895c30.0901489 21.0631104 60.514679 44.9680595 87.2614746 71.547699h-.000061z" fill="#606"/></svg>

<?xml version="1.0" encoding="utf-8"?>
<!-- Generator: Adobe Illustrator 26.3.1, SVG Export Plug-In . SVG Version: 6.00 Build 0)  -->
<svg version="1.2" baseProfile="tiny" id="Layer_1" xmlns="http://www.w3.org/2000/svg" xmlns:xlink="http://www.w3.org/1999/xlink"
	 x="0px" y="0px" viewBox="0 0 512 512" overflow="visible" xml:space="preserve">
<path fill="#660066" d="M0.3000209,290.6701965v195.7532043C0.3000209,500.4654541,11.6674175,512,25.8766575,512h199.9323425
	C224.1373291,389.6333618,123.669632,290.6701965,0.3000209,290.6701965z M0.3000209,129.1863861v83.2494202
	c165.4958496,1.5045013,299.8985291,134.9041901,301.5701904,299.3970947h86.4256592
	C386.624176,300.7002869,213.2714386,129.3535767,0.3000209,129.1864166V129.1863861z M511.498291,486.2562256V312.2348328
	C453.3240051,167.8020782,334.9693604,53.7938385,187.3604736,0.467397H25.8766308
	c-14.0420609,0-25.5766354,11.3673906-25.5766354,25.5766296v25.0751286
	c255.0976868,1.504509,462.3854065,207.287735,464.0570984,460.7137451h21.731781
	c14.0420532,0,25.4094849-11.3673706,25.4094849-25.5766296L511.498291,486.2562256z M444.1297913,72.0150986
	c24.2392883,24.0721207,47.8099365,52.9921112,67.535675,79.9060593V26.0440273
	c0-14.0420752-11.3673706-25.5766296-25.5765991-25.5766296H356.8683777
	c30.0901489,21.0631104,60.514679,44.9680595,87.2614746,71.547699H444.1297913z"/>
</svg>
